Papirus/64x64/mimetypes/application-x-hip.svg

<?xml version="1.0" encoding="UTF-8" standalone="no"?>
<svg
   id="_图层_1"
   data-name="图层_1"
   version="1.1"
   viewBox="0 0 128 128"
   width="64"
   height="64"
   sodipodi:docname="application-x-hip.svg"
   xml:space="preserve"
   inkscape:version="1.4 (e7c3feb100, 2024-10-09)"
   xmlns:inkscape="http://www.inkscape.org/namespaces/inkscape"
   xmlns:sodipodi="http://sodipodi.sourceforge.net/DTD/sodipodi-0.dtd"
   xmlns="http://www.w3.org/2000/svg"
   xmlns:svg="http://www.w3.org/2000/svg"><sodipodi:namedview
     id="namedview3"
     pagecolor="#505050"
     bordercolor="#eeeeee"
     borderopacity="1"
     inkscape:showpageshadow="0"
     inkscape:pageopacity="0"
     inkscape:pagecheckerboard="0"
     inkscape:deskcolor="#505050"
     inkscape:zoom="10.6875"
     inkscape:cx="32"
     inkscape:cy="26.292398"
     inkscape:window-width="1920"
     inkscape:window-height="939"
     inkscape:window-x="0"
     inkscape:window-y="34"
     inkscape:window-maximized="1"
     inkscape:current-layer="_图层_1"
     showguides="true"><sodipodi:guide
       position="7.6134526,83.439664"
       orientation="1,0"
       id="guide7"
       inkscape:locked="false" /><sodipodi:guide
       position="120.24109,71.856006"
       orientation="1,0"
       id="guide8"
       inkscape:locked="false" /></sodipodi:namedview><!-- Generator: Adobe Illustrator 29.0.1, SVG Export Plug-In . SVG Version: 2.1.0 Build 192)  --><defs
     id="defs1"><style
       id="style1">
      .st0 {
        fill: #0071e9;
      }

      .st1 {
        fill: #fff;
      }

      .st2 {
        fill: #5aaaff;
        isolation: isolate;
        opacity: .5;
      }
    </style><style
       id="style1-6">
      .st0 {
        fill: #0071e9;
      }

      .st1 {
        fill: #fff;
      }

      .st2 {
        fill: #5aaaff;
        isolation: isolate;
        opacity: .5;
      }
    </style></defs><path
     class="st0"
     d="M18.2,0c-5.6,0-10.2,4.6-10.2,10.2v107.6c0,5.6,4.6,10.2,10.2,10.2h91.6c5.6,0,10.2-4.6,10.2-10.2V40.6L82.2,0H18.2Z"
     id="path1"
     style="fill:#f36128;fill-opacity:1" /><path
     class="st2"
     d="m 82.761404,2.619883 v 29.2 c 0,3.2 2.145542,11.6 11.89801,11.6 h 24.966316 z"
     id="path2"
     style="fill:#c24e20;fill-opacity:1;stroke-width:0.987546" /><path
     class="st2"
     d="M 82.116964,0.02339171 V 29.223392 c 0,3.2 2.2,11.6 12.2,11.6 h 25.599996 z"
     id="path2-3"
     style="opacity:1;isolation:isolate;fill:#ebb9a1;fill-opacity:1" /><g
     id="g9"
     transform="matrix(2.5528974,0,0,2.2889094,-17.879851,-9.1030061)"><path
       style="opacity:0.2"
       d="M 24.146484,26 C 18.473272,25.9972 13.680224,27.815459 10,30.630859 v 5.509766 c 3.008415,-3.1122 7.401922,-5.281788 13.007812,-5.367187 0.373073,-0.0056 0.75438,-0.0028 1.138672,0.0098 8.680224,0.2996 14.456429,7.203094 14.464844,14.371094 0.01122,7.9156 -4.89643,13.32235 -13.169922,13.21875 -5.63394,-0.07 -11.124077,-3.913366 -10.982422,-9.759766 0.1108,-4.6424 3.408607,-8.396884 8.648438,-8.521484 4.237027,-0.0994 5.941406,2.815941 5.941406,4.619141 0,1.7094 -1.013573,3.914159 -3.505859,4.443359 -2.014025,0.4284 -4.86241,-1.674922 -2.710938,-4.544922 -2.199158,-0.0994 -4.116864,1.284081 -4.230469,3.738281 -0.220196,4.7572 4.727382,6.60641 7.888672,6.09961 5.798036,-0.9268 7.948523,-4.688275 7.921875,-9.796875 C 34.384059,39.305191 29.528905,34.578625 23.234375,34.515625 18.196507,34.466625 12.181907,37.344047 10,43.623047 v 9.619141 C 10.975622,55.774707 12.783977,58.179843 15.287109,60 H 36.720703 C 41.207145,56.913275 43.997488,51.759146 44,45.123047 44.004208,34.459247 36.292346,26.007 24.146484,26 Z"
       id="path6" /><path
       style="fill:#e4e4e4"
       d="M 24.145862,25 C 18.47265,24.9972 13.680224,26.8158 10,29.6312 v 5.509 c 3.008415,-3.1122 7.402524,-5.2822 13.008414,-5.3676 0.373072,-0.0056 0.753156,-0.0014 1.137448,0.0112 8.680224,0.2996 14.457222,7.2016 14.465637,14.3696 0.01122,7.9156 -4.896213,13.3224 -13.169705,13.2188 -5.63394,-0.07 -11.124824,-3.9116 -10.983169,-9.758 0.1108,-4.6424 3.408135,-8.3972 8.647966,-8.5218 4.237027,-0.0994 5.942496,2.8154 5.942496,4.6186 0,1.7094 -1.014025,3.9144 -3.506311,4.4436 -2.014025,0.4284 -4.862552,-1.6758 -2.71108,-4.5458 -2.199158,-0.0994 -4.116409,1.2852 -4.230013,3.7394 -0.220197,4.7572 4.72791,6.6052 7.8892,6.0984 5.798036,-0.9268 7.948106,-4.6872 7.921458,-9.7958 -0.02805,-5.3452 -4.88359,-10.073 -11.17812,-10.136 C 18.196353,33.4658 12.181907,36.3442 10,42.6232 v 9.6194 c 1.165498,3.0254 3.504909,5.88 6.817671,7.7574 h 18.273492 c 5.434782,-2.898 8.90603,-8.4672 8.908835,-15.876 C 44.004206,33.4602 36.291724,25.007 24.145862,25 Z"
       id="path7" /></g></svg>

<svg xmlns="http://www.w3.org/2000/svg" width="64" height="64" version="1.1">
 <path style="opacity:0.2" d="M 12.75,5 C 11.2265,5 10,6.2488 10,7.8 v 50.4 c 0,1.55008 1.2265,2.8 2.75,2.8 h 38.5 C 52.7724,61 54,59.75008 54,58.2 V 23 L 40,19 36,5 Z"/>
 <path style="fill:#f36128" d="M 12.75,4 C 11.2265,4 10,5.2488 10,6.8 v 50.4 c 0,1.55008 1.2265,2.8 2.75,2.8 h 38.5 C 52.7724,60 54,58.75008 54,57.2 V 22 L 40,18 36,4 Z"/>
 <path style="opacity:0.2" d="M 54,23 36,5 V 20.1875 C 36,21.74675 37.2555,23 38.8125,23 Z"/>
 <path style="fill:#ebb9a1" d="M 54,22 36,4 V 19.1875 C 36,20.74675 37.2555,22 38.8125,22 Z"/>
 <path style="opacity:0.2;fill:#ffffff" d="M 12.75 4 C 11.2265 4 10 5.2495812 10 6.8007812 L 10 7.8007812 C 10 6.2495813 11.2265 5 12.75 5 L 36 5 L 36 4 L 12.75 4 z"/>
 <path style="opacity:0.2" d="M 24.146484 26 C 18.473272 25.9972 13.680224 27.815459 10 30.630859 L 10 36.140625 C 13.008415 33.028425 17.401922 30.858837 23.007812 30.773438 C 23.380885 30.767837 23.762192 30.770603 24.146484 30.783203 C 32.826708 31.082803 38.602913 37.986297 38.611328 45.154297 C 38.622548 53.069897 33.714898 58.476647 25.441406 58.373047 C 19.807466 58.303047 14.317329 54.459681 14.458984 48.613281 C 14.569784 43.970881 17.867591 40.216397 23.107422 40.091797 C 27.344449 39.992397 29.048828 42.907738 29.048828 44.710938 C 29.048828 46.420338 28.035255 48.625097 25.542969 49.154297 C 23.528944 49.582697 20.680559 47.479375 22.832031 44.609375 C 20.632873 44.509975 18.715167 45.893456 18.601562 48.347656 C 18.381366 53.104856 23.328944 54.954066 26.490234 54.447266 C 32.28827 53.520466 34.438757 49.758991 34.412109 44.650391 C 34.384059 39.305191 29.528905 34.578625 23.234375 34.515625 C 18.196507 34.466625 12.181907 37.344047 10 43.623047 L 10 53.242188 C 10.975622 55.774707 12.783977 58.179843 15.287109 60 L 36.720703 60 C 41.207145 56.913275 43.997488 51.759146 44 45.123047 C 44.004208 34.459247 36.292346 26.007 24.146484 26 z"/>
 <path style="fill:#e4e4e4" d="M 24.145862,25 C 18.47265,24.9972 13.680224,26.8158 10,29.6312 v 5.509 c 3.008415,-3.1122 7.402524,-5.2822 13.008414,-5.3676 0.373072,-0.0056 0.753156,-0.0014 1.137448,0.0112 8.680224,0.2996 14.457222,7.2016 14.465637,14.3696 0.01122,7.9156 -4.896213,13.3224 -13.169705,13.2188 -5.63394,-0.07 -11.124824,-3.9116 -10.983169,-9.758 0.1108,-4.6424 3.408135,-8.3972 8.647966,-8.5218 4.237027,-0.0994 5.942496,2.8154 5.942496,4.6186 0,1.7094 -1.014025,3.9144 -3.506311,4.4436 -2.014025,0.4284 -4.862552,-1.6758 -2.71108,-4.5458 -2.199158,-0.0994 -4.116409,1.2852 -4.230013,3.7394 -0.220197,4.7572 4.72791,6.6052 7.8892,6.0984 5.798036,-0.9268 7.948106,-4.6872 7.921458,-9.7958 -0.02805,-5.3452 -4.88359,-10.073 -11.17812,-10.136 C 18.196353,33.4658 12.181907,36.3442 10,42.6232 v 9.6194 c 1.165498,3.0254 3.504909,5.88 6.817671,7.7574 h 18.273492 c 5.434782,-2.898 8.90603,-8.4672 8.908835,-15.876 C 44.004206,33.4602 36.291724,25.007 24.145862,25 Z"/>
</svg>
